X: 21
T: Keellum kallum taa fein
N: The title isn't too legible.
%R: reel
B: "Scots Reel & Country Dances for the Year 1769", R.Bremner, ed. p.108
F: http://digital.nls.uk/special-collections-of-printed-music/pageturner.cfm?id=104993891
Z: 2016 John Chambers <jc:trillian.mit.edu>
M: C|
L: 1/8
K: Amix
% - - - - - - - - - - - - - - - - - - - - - - - - - - - - -
V: 1
|:\
AAce d2(BG) | AATcA e2(TcA) |\
BEBe d2(BG) | AATcA (B/c/d) e2 ::\
AATcA g2(BG) | AATcA a2(ae) |
g2Tge d2(BG) | AATcA (B/c/d) e2 ::\
AATcA G2(BG) | AATcB A2(TcA) |\
cATBA G2(BG) | AATcA (B/c/d) e2 :|
|:\
AATcA BgBG | AATcA AacA |\
aeTfd egBG | AATcA (B/c/d)e2 ::\
AATcA G/G/G BG | AATcB A/A/A (TcA) |
cATBA G/G/G (BG) | AATcA (B/c/d) e2 ::\
AAce dgBG | AAce AacA |\
(a/g/f/e/ f)d gdBG | AATcA (B/c/d) e2 :|
% - - - - - - - - - - - - - - - - - - - - - - - - - - - - -
V: 2 clef=bass middle=d
|:\
a2a2 g2g2 | a2a2 a2a2 | e2e2 g2g2 | a2a2 e2A2 :: a2a2 g2g2 | a2a2 a2a2 |
a2a2 g2g2 | a2a2 e2A2 :: a2a2 g2g2 | a2a2 a2a2 | a2a2 g2g2 | a2a2 e2A2 :|
|:\
a2a2 g2g2 | a2a2 a2a2 | a2a2 g2g2 | a2a2 e2A2 :: a2a2 g2g2 | a2a2 a2a2 |
a2a2 g2g2 | a2a2 e2A2 :: a2a2 g2g2 | a2a2 a2a2 | a2a2 g2g2 | a2a2 e2A2 :|
% - - - - - - - - - - Dance description - - - - - - - - - -
%%begintext align
%% hands a cross .|
%% and back again :|
%% cross over one Cu: .|.
%% lead up and cast off :|:
%% lead through the 3d Cu: and cast up .|
%% through the Top and cast off :|
%% set corners and turn :|:
%% swing corners and swing your Partner .||.
%% and Reel :||:
%%endtext
%%sep 2 2 400


